svgicons/fullscreen.svg

<svg xmlns="http://www.w3.org/2000/svg" viewBox="160 160 320 320"><!--!Font Awesome Free 7.1.0 by @fontawesome - https://fontawesome.com License - https://fontawesome.com/license/free Copyright 2025 Fonticons, Inc.--><path d="M408 64h144c13.3 0 24 10.7 24 24v144c0 9.7-5.8 18.5-14.8 22.2s-19.3 1.7-26.2-5.2l-39-39-87 87c-9.4 9.4-24.6 9.4-33.9 0l-32-32c-9.4-9.4-9.4-24.6 0-33.9l87-87-39-39c-6.9-6.9-8.9-17.2-5.2-26.2S398.3 64 408 64M232 576H88c-13.3 0-24-10.7-24-24V408c0-9.7 5.8-18.5 14.8-22.2s19.3-1.6 26.2 5.2l39 39 87-87c9.4-9.4 24.6-9.4 33.9 0l32 32c9.4 9.4 9.4 24.6 0 33.9l-87 87 39 39c6.9 6.9 8.9 17.2 5.2 26.2S241.7 576 232 576"/></svg>

<svg xmlns="http://www.w3.org/2000/svg" viewBox="160 160 320 320"><!--!Font Awesome Free 7.1.0 by @fontawesome - https://fontawesome.com License - https://fontawesome.com/license/free Copyright 2025 Fonticons, Inc.--><path d="M408 64L552 64C565.3 64 576 74.7 576 88L576 232C576 241.7 570.2 250.5 561.2 254.2C552.2 257.9 541.9 255.9 535 249L496 210L409 297C399.6 306.4 384.4 306.4 375.1 297L343.1 265C333.7 255.6 333.7 240.4 343.1 231.1L430.1 144.1L391.1 105.1C384.2 98.2 382.2 87.9 385.9 78.9C389.6 69.9 398.3 64 408 64zM232 576L88 576C74.7 576 64 565.3 64 552L64 408C64 398.3 69.8 389.5 78.8 385.8C87.8 382.1 98.1 384.2 105 391L144 430L231 343C240.4 333.6 255.6 333.6 264.9 343L296.9 375C306.3 384.4 306.3 399.6 296.9 408.9L209.9 495.9L248.9 534.9C255.8 541.8 257.8 552.1 254.1 561.1C250.4 570.1 241.7 576 232 576z"/></svg>
